components/2.0/icon/icons/icon-compass-22px.svg

<?xml version="1.0" encoding="UTF-8" standalone="no"?>
<svg width="22px" height="22px" viewBox="0 0 22 22" version="1.1" xmlns="http://www.w3.org/2000/svg" xmlns:xlink="http://www.w3.org/1999/xlink" xmlns:sketch="http://www.bohemiancoding.com/sketch/ns">
    <!-- Generator: Sketch 3.4.4 (17249) - http://www.bohemiancoding.com/sketch -->
    <title>icon-compass-22px</title>
    <desc>Created with Sketch.</desc>
    <defs></defs>
    <g id="22px" stroke="none" stroke-width="1" fill="none" fill-rule="evenodd" sketch:type="MSPage">
        <g id="icon-compass-22px" sketch:type="MSArtboardGroup" fill="#3D4752">
            <path d="M10.8794,15.6289 C10.2394,15.6289 9.6224,15.5519 9.0394,15.4209 L10.5694,11.5979 C10.6734,11.6059 10.7734,11.6289 10.8794,11.6289 C10.9854,11.6289 11.0854,11.6059 11.1894,11.5979 L12.7194,15.4209 C12.1364,15.5519 11.5194,15.6289 10.8794,15.6289 M10.8794,5.6289 C11.9824,5.6289 12.8794,6.5259 12.8794,7.6289 C12.8794,8.7319 11.9824,9.6289 10.8794,9.6289 C9.7764,9.6289 8.8794,8.7319 8.8794,7.6289 C8.8794,6.5259 9.7764,5.6289 10.8794,5.6289 M18.7584,12.6289 L16.6734,12.6289 C16.3364,13.4639 15.5904,14.1989 14.5984,14.7339 L13.0884,10.9589 C14.1664,10.2409 14.8794,9.0179 14.8794,7.6289 C14.8794,5.7709 13.5994,4.2179 11.8794,3.7709 L11.8794,1.6289 L9.8794,1.6289 L9.8794,3.7709 C8.1594,4.2179 6.8794,5.7709 6.8794,7.6289 C6.8794,9.0179 7.5924,10.2409 8.6704,10.9589 L7.1604,14.7339 C6.1684,14.1989 5.4224,13.4639 5.0854,12.6289 L3.0004,12.6289 C3.3704,14.2769 4.6414,15.6949 6.4144,16.5969 L4.9504,20.2579 L6.8084,20.9999 L8.2884,17.2999 C9.1014,17.5099 9.9714,17.6289 10.8794,17.6289 C11.7874,17.6289 12.6574,17.5099 13.4704,17.2999 L14.9504,20.9999 L16.8084,20.2579 L15.3444,16.5969 C17.1174,15.6949 18.3884,14.2769 18.7584,12.6289" id="compass" sketch:type="MSShapeGroup"></path>
        </g>
    </g>
</svg>

<svg width="22" height="22" xmlns="http://www.w3.org/2000/svg"><path d="M11 15.6c-.8 0-1.4 0-2-.2l1.6-3.8h.5l1.5 3.8c-.6.2-1.2.2-1.8.2m0-10c1 0 2 1 2 2s-1 2-2 2c-1.2 0-2-1-2-2s.8-2 2-2m7.8 7h-2c-.5 1-1.2 1.6-2.2 2L13 11c1.2-.8 2-2 2-3.4 0-1.8-1.4-3.4-3-3.8V1.6h-2v2.2c-1.8.4-3 2-3 3.8 0 1.4.6 2.6 1.7 3.4l-1.5 3.7c-1-.5-1.8-1.2-2-2H3c.4 1.6 1.6 3 3.4 4L5 20.2l1.8.7 1.5-3.7c.8.2 1.7.3 2.6.3.8 0 1.7 0 2.5-.3L15 21l1.8-.7-1.5-3.7c1.8-1 3-2.3 3.5-4" fill="#3D4752" fill-rule="evenodd"/></svg>
